images/people/people-11.svg

<?xml version="1.0" standalone="no"?><!DOCTYPE svg PUBLIC "-//W3C//DTD SVG 1.1//EN" "http://www.w3.org/Graphics/SVG/1.1/DTD/svg11.dtd"><svg width="120px" height="192px" version="1.1" xmlns="http://www.w3.org/2000/svg" xmlns:xlink="http://www.w3.org/1999/xlink" xml:space="preserve" style="fill-rule:evenodd;clip-rule:evenodd;stroke-linejoin:round;stroke-miterlimit:1.41421;"><g><g id="people-11" transform="matrix(1,0,0,1,-1889,-48)"><g transform="matrix(1,0,0,1,0,-12)"><path d="M1941.51,231.02l-0.943,6.871l6.697,-0.172l0.516,-7.384l-6.27,0.685Z" style="fill:#2a2b2a;fill-rule:nonzero;"/></g><g transform="matrix(1,0,0,1,0,-12)"><path d="M1946.34,241.519l1.353,9.981l5.28,0l0.773,-2.189l-1.377,-9.057l-6.029,1.265Z" style="fill:#2a2b2a;fill-rule:nonzero;"/></g><g transform="matrix(1,0,0,1,0,-12)"><path d="M1950.89,114.329l-4.286,0l-4.616,-5.935l0.824,-12.694l8.234,-1.375l5.115,2.034l-0.163,12.035l-5.108,5.935Z" style="fill:#e1c5b5;fill-rule:nonzero;"/></g><g transform="matrix(1,0,0,1,0,-12)"><path d="M1955.68,117.896l-2.834,-1.889l-2.061,-5.839l-4.757,1.357l-1.51,3.709l-3.262,1.632l7.103,11.462l7.321,-10.432Z" style="fill:#e1c5b5;fill-rule:nonzero;"/></g><g transform="matrix(1,0,0,1,0,-12)"><path d="M1942.5,100.946l-2.822,0.047l-0.223,4.916l2.879,-0.15l0.166,-4.813Z" style="fill:#e1c5b5;fill-rule:nonzero;"/></g><g transform="matrix(1,0,0,1,0,-12)"><path d="M1955.79,101.615l2.848,0.775l-0.223,4.122l-2.518,0.098l-0.107,-4.995Z" style="fill:#e1c5b5;fill-rule:nonzero;"/></g><g transform="matrix(1,0,0,1,0,-12)"><path d="M1936.85,156.022l4.661,74.999l5.41,0l1.201,-64.868l-2.794,28.965l1.078,46.465l5.923,-1.289l3.094,-44.931l4.033,-38.827l-22.606,-0.514Z" style="fill:#313156;fill-rule:nonzero;"/></g><g transform="matrix(1,0,0,1,0,-12)"><path d="M1947.58,166.053l-2.72,31.112l1.282,33.865l-5.317,-10.072l-2.576,-45.699l9.331,-9.206Z" style="fill:#171817;fill-opacity:0.5;fill-rule:nonzero;"/></g><g transform="matrix(1,0,0,1,0,-12)"><path d="M1966.76,151.981l2.349,5.768l-0.451,7.992l-2.655,-1.018l-0.54,-6.748l0.22,2.034l-2.4,0.107l0.871,-5.549l-6,-25.23l4.693,-0.784l3.913,23.428Z" style="fill:#e1c5b5;fill-rule:nonzero;"/></g><g transform="matrix(1,0,0,1,0,-12)"><path d="M1930.66,152.008l-1.775,4.729l0.156,7.378l2.899,-0.381l0.587,-6.746l-0.232,2.033l2.495,0.344l-0.837,-5.843l3.696,-25.741l-3.753,-0.745l-3.236,24.972Z" style="fill:#e1c5b5;fill-rule:nonzero;"/></g><g transform="matrix(1,0,0,1,0,-12)"><path d="M1943.62,115.736l-8.725,3.705l-1.173,8.886l3.81,0.225l0.625,-1.975l-1.373,29.442l22.668,0.516l-1.889,-29.709l0.59,2.511l4.694,-0.785l-1.333,-7.222l-8.339,-5.065l-9.555,-0.529Z" style="fill:#694;fill-rule:nonzero;"/></g></g></g></svg>

<?xml version="1.0" encoding="UTF-8" standalone="no"?>
<!DOCTYPE svg PUBLIC "-//W3C//DTD SVG 1.1//EN" "http://www.w3.org/Graphics/SVG/1.1/DTD/svg11.dtd">
<svg width="100%" height="100%" viewBox="0 0 140 220" version="1.1" xmlns="http://www.w3.org/2000/svg" xmlns:xlink="http://www.w3.org/1999/xlink" xml:space="preserve" xmlns:serif="http://www.serif.com/" style="fill-rule:evenodd;clip-rule:evenodd;stroke-linejoin:round;stroke-miterlimit:2;">
    <g id="people-11" transform="matrix(1.27,0,0,1.27,-2405.23,-84.8)">
        <g transform="matrix(1,0,0,1,0,-12)">
            <path d="M1941.51,231.021L1940.57,237.892L1947.27,237.72L1947.78,230.336L1941.51,231.021Z" style="fill:rgb(42,43,42);fill-rule:nonzero;"/>
        </g>
        <g transform="matrix(1,0,0,1,0,-12)">
            <path d="M1946.34,241.519L1947.69,251.5L1952.98,251.5L1953.75,249.311L1952.37,240.254L1946.34,241.519Z" style="fill:rgb(42,43,42);fill-rule:nonzero;"/>
        </g>
        <g transform="matrix(1,0,0,1,0,-12)">
            <path d="M1950.89,114.329L1946.6,114.329L1941.99,108.394L1942.81,95.7L1951.04,94.325L1956.16,96.359L1956,108.394L1950.89,114.329Z" style="fill:rgb(225,197,181);fill-rule:nonzero;"/>
        </g>
        <g transform="matrix(1,0,0,1,0,-12)">
            <path d="M1955.68,117.896L1952.85,116.007L1950.79,110.168L1946.03,111.525L1944.52,115.234L1941.26,116.866L1948.36,128.328L1955.68,117.896Z" style="fill:rgb(225,197,181);fill-rule:nonzero;"/>
        </g>
        <g transform="matrix(1,0,0,1,0,-12)">
            <path d="M1942.5,100.946L1939.68,100.993L1939.45,105.909L1942.33,105.759L1942.5,100.946Z" style="fill:rgb(225,197,181);fill-rule:nonzero;"/>
        </g>
        <g transform="matrix(1,0,0,1,0,-12)">
            <path d="M1955.79,101.615L1958.64,102.39L1958.41,106.512L1955.89,106.61L1955.79,101.615Z" style="fill:rgb(225,197,181);fill-rule:nonzero;"/>
        </g>
        <g transform="matrix(1,0,0,1,0,-12)">
            <path d="M1936.85,156.022L1941.51,231.021L1946.92,231.021L1948.12,166.153L1945.33,195.118L1946.41,241.583L1952.33,240.294L1955.42,195.363L1959.46,156.536L1936.85,156.022Z" style="fill:rgb(49,49,86);fill-rule:nonzero;"/>
        </g>
        <g transform="matrix(1,0,0,1,0,-12)">
            <path d="M1947.58,166.053L1944.86,197.165L1946.14,231.03L1940.82,220.958L1938.25,175.259L1947.58,166.053Z" style="fill:rgb(23,24,23);fill-opacity:0.5;fill-rule:nonzero;"/>
        </g>
        <g transform="matrix(1,0,0,1,0,-12)">
            <path d="M1966.77,151.981L1969.11,157.749L1968.66,165.741L1966.01,164.723L1965.47,157.975L1965.69,160.009L1963.29,160.116L1964.16,154.567L1958.16,129.337L1962.85,128.553L1966.77,151.981Z" style="fill:rgb(225,197,181);fill-rule:nonzero;"/>
        </g>
        <g transform="matrix(1,0,0,1,0,-12)">
            <path d="M1930.66,152.008L1928.88,156.737L1929.04,164.115L1931.94,163.734L1932.53,156.988L1932.29,159.021L1934.79,159.365L1933.95,153.522L1937.65,127.781L1933.89,127.036L1930.66,152.008Z" style="fill:rgb(225,197,181);fill-rule:nonzero;"/>
        </g>
        <g transform="matrix(1,0,0,1,0,-12)">
            <path d="M1943.62,115.736L1934.9,119.441L1933.73,128.327L1937.54,128.552L1938.16,126.577L1936.79,156.019L1959.46,156.535L1957.57,126.826L1958.16,129.337L1962.85,128.552L1961.52,121.33L1953.18,116.265L1943.62,115.736Z" style="fill:rgb(102,153,68);fill-rule:nonzero;"/>
        </g>
    </g>
</svg>
